X:1
T:Title
%%score { ( 1 3 ) | ( 2 4 ) }
L:1/8
M:4/4
K:Eb
V:1 treble nm="Grand Piano"
V:3 treble 
V:2 bass 
V:4 bass 
V:1
 z4 z2[Q:1/4=100] E>F | G2 [GB]2 [GB]2 [B,EG]>[B,EG] | [B,FA]2 [DAc]2 [DAc]2 [DAc]>[DAc] | %3
 [EGB]2 [EGB]>[EAc] [EGB]2 [B,EG]2 | [DF]6 [G,B,E]>[A,B,F] | [B,EG]2 [EGB]2 [EGB]2 [B,EG]>[B,EG] | %6
 [B,FA]2 [DAc]2 [DAc]2 [DAc]>[DAc] | [EGB]2 [B,EB]>[CEA] [EG]2 [A,DF]2 |[M:3/4] [G,E]6 | %9
[M:1/4] z2 |[M:4/4] c6 z2 | B6 z2 | [Fd]2 [Ac]>[Ac] [GB]2 [FA]2 |[M:3/4] [EG]6 |[M:1/4] E2 | %15
[M:4/4] c6 z2 | B6 z2 | [Ge]2 B>A G2 [DF]2 |[M:3/4] E6 |] %19
V:2
 z4 z2 [E,G,B,]>[E,A,B,] | [E,B,E]2 [E,E]2 [E,E]2 E,>E, | B,,2 B,,2 B,,2 B,,>B,, | %3
 E,2 E,>E, E,2 E,>G, | B,6 E,>E, | E,2 E,2 E,2 E,>E, | B,,2 B,,2 B,,2 B,,>B,, | %7
 E,2 G,>A, B,2 B,,2 |[M:3/4] E,6 |[M:1/4][K:treble] E2 |[M:4/4] A6 z2 | G6[K:bass] z2 | %12
 [B,,B,]2 [B,,B,]>[B,,B,] [B,,B,]2 [B,,B,]2 |[M:3/4] [E,B,]2 E,2 E,2 |[M:1/4] z2 | %15
[M:4/4][K:treble] E6 E>A | G6[K:bass] z2 | [E,B,]2 [G,B,E]>[A,CE] [B,E]2 [B,,A,]2 | %18
[M:3/4] [E,G,]6 |] %19
V:3
 x8 | x8 | x8 | x8 | x8 | x8 | x8 | x8 |[M:3/4] x6 |[M:1/4] x2 |[M:4/4] z2 E2 E2 A>c | %11
 z2 E2 E2 [EGB]>[Ge] | x8 |[M:3/4] z2 B,2 B,2 |[M:1/4] x2 |[M:4/4] z2 A,2 A,2 A>c | %16
 z2 E2 E2 c>[Ad] | x8 |[M:3/4] x6 |] %19
V:4
 x8 | x8 | x8 | x8 | x8 | x8 | x8 | x8 |[M:3/4] x6 |[M:1/4][K:treble] x2 |[M:4/4] z2 A,2 A,2 E>A | %11
 z2[K:bass] E,2 E,2 E,>[E,B,] | x8 |[M:3/4] x6 |[M:1/4] x2 |[M:4/4][K:treble] x8 | %16
 z2[K:bass] E,2 E,2 [A,EA]>[F,B,] | x8 |[M:3/4] x6 |] %19

